X: 6750
T: Chandelier, The
R: reel
M: 4/4
K: Dmajor
A,B,C|DFAF A,CEE|DFAc d2cd|Bg~g2 gbed|cAed cAGE|
DFAF A,CEE|DFAc dced|cAA^G ABA=G|(3FGA EC D:|
|:EFA|d2ba afgf|ed~d2 cABc|d2ba afgf|ed~d2 cega|
fd~d2deff|eAA^G ABcA|BG~G2 GABG|AFEF D:|

